X: 1
T: Green Pub, The
M: 4/4
L: 1/8
R: reel
K: Dmaj
d2AF DEFD|EAAG ABcA|d2AF DEFD|1EAAG FDFA:|2EAAG FDFG||
A2fe dAFA|Geed cABc|1dAfe d2AF|GEAG FDFG:|2d2cd AFDF|GEAG FDD2||
